public/assets/images/banner/shopify.svg

<svg width="147" height="50" viewBox="0 0 147 50" fill="none" xmlns="http://www.w3.org/2000/svg">
<foreignObject x="-10" y="-10" width="167" height="70"><div xmlns="http://www.w3.org/1999/xhtml" style="backdrop-filter:blur(5px);clip-path:url(#bgblur_0_853_13944_clip_path);height:100%;width:100%"></div></foreignObject><g data-figma-bg-blur-radius="10">
<rect width="147" height="50" rx="25" fill="white"/>
<path d="M42.88 15.1979C42.8578 15.0354 42.7154 14.9455 42.5981 14.9357C42.4807 14.9259 40.1895 14.8911 40.1895 14.8911C40.1895 14.8911 38.2733 13.03 38.084 12.8406C37.8947 12.6512 37.5249 12.7087 37.3814 12.7509C37.3793 12.7515 37.0218 12.8623 36.4185 13.049C36.3178 12.722 36.1693 12.3204 35.9577 11.9168C35.2754 10.6152 34.2765 9.92623 33.0692 9.92447C33.0678 9.92447 33.0665 9.92447 33.0651 9.92447C32.9814 9.92447 32.898 9.93233 32.8145 9.93994C32.7791 9.89719 32.7432 9.85482 32.7054 9.8144C32.1798 9.25181 31.5048 8.97771 30.6969 9.00142C29.1373 9.04611 27.585 10.1722 26.3258 12.1721C25.4395 13.5797 24.7661 15.3479 24.5746 16.7164C22.7843 17.2708 21.5317 17.6588 21.5046 17.6673C20.6009 17.9509 20.5725 17.9793 20.454 18.8307C20.3643 19.4752 18 37.7602 18 37.7602L37.8174 41.1872L46.4064 39.0523C46.4064 39.0523 42.9022 15.3604 42.88 15.1979ZM25.6848 16.3726C26.2207 13.867 28.3202 10.108 30.7269 10.0388C31.093 10.0312 31.4014 10.1115 31.6647 10.2848C31.2435 10.5035 30.8361 10.8179 30.4539 11.2277C29.4634 12.2903 28.7047 13.9402 28.4021 15.5311C27.4578 15.8235 26.5344 16.1095 25.6848 16.3726ZM32.8512 14.1535C31.813 14.4749 30.6796 14.8259 29.5426 15.178C29.8627 13.9535 30.4686 12.7343 31.2132 11.9356C31.4902 11.6385 31.8777 11.307 32.3365 11.1177C32.7681 12.0171 32.8616 13.2921 32.8512 14.1535ZM33.8878 13.8325C33.8763 13.0429 33.782 11.9445 33.4142 10.9951C34.5974 11.2193 35.18 12.558 35.4258 13.3563C34.9699 13.4974 34.4505 13.6583 33.8878 13.8325Z" fill="#95BF47"/>
<path d="M42.598 14.9357C42.4806 14.9259 40.1894 14.891 40.1894 14.891C40.1894 14.891 38.2732 13.03 38.0839 12.8406C38.0133 12.7699 37.9176 12.7338 37.8179 12.7182L37.8184 41.187L46.4063 39.0523C46.4063 39.0523 42.9022 15.3604 42.8799 15.1979C42.8577 15.0354 42.7154 14.9455 42.598 14.9357Z" fill="#5E8E3E"/>
<path d="M33.0568 19.3519L32.0592 23.0837C32.0592 23.0837 30.9464 22.577 29.6272 22.6603C27.6929 22.7824 27.6723 24.0026 27.6916 24.3083C27.797 25.9774 32.1877 26.3421 32.4345 30.2512C32.6287 33.3267 30.8032 35.4304 28.1728 35.5965C25.0164 35.7958 23.2783 33.9333 23.2783 33.9333L23.9471 31.0877C23.9471 31.0877 25.6963 32.4073 27.0964 32.319C28.011 32.2612 28.3378 31.5174 28.3046 30.9913C28.1671 28.8141 24.5918 28.9424 24.3659 25.3651C24.1758 22.3544 26.1528 19.3043 30.5152 19.0288C32.196 18.9228 33.0568 19.3519 33.0568 19.3519Z" fill="white"/>
<path d="M62.2463 32.2536C61.3263 32.2536 60.4596 32.1203 59.6463 31.8536C58.8329 31.5869 58.1463 31.1536 57.5863 30.5536C57.0263 29.9536 56.6529 29.1603 56.4663 28.1736H58.6463C58.8196 28.7336 59.0996 29.1736 59.4863 29.4936C59.8729 29.8003 60.3196 30.0136 60.8263 30.1336C61.3463 30.2536 61.8663 30.3136 62.3863 30.3136C62.8796 30.3136 63.3396 30.2469 63.7663 30.1136C64.2063 29.9803 64.5663 29.7603 64.8463 29.4536C65.1263 29.1469 65.2663 28.7469 65.2663 28.2536C65.2663 27.8803 65.1929 27.5736 65.0463 27.3336C64.8996 27.0936 64.6929 26.9003 64.4263 26.7536C64.1729 26.5936 63.8663 26.4669 63.5063 26.3736C63.0929 26.2403 62.6463 26.1269 62.1663 26.0336C61.6996 25.9403 61.2329 25.8336 60.7663 25.7136C60.3129 25.5936 59.8863 25.4403 59.4863 25.2536C59.1529 25.1203 58.8263 24.9603 58.5063 24.7736C58.1996 24.5736 57.9329 24.3403 57.7063 24.0736C57.4796 23.7936 57.2929 23.4669 57.1463 23.0936C57.0129 22.7203 56.9463 22.2936 56.9463 21.8136C56.9463 21.1736 57.0463 20.6269 57.2463 20.1736C57.4596 19.7203 57.7329 19.3403 58.0663 19.0336C58.4129 18.7269 58.8063 18.4869 59.2463 18.3136C59.6996 18.1269 60.1729 17.9936 60.6663 17.9136C61.1596 17.8336 61.6396 17.7936 62.1063 17.7936C62.9596 17.7936 63.7463 17.9269 64.4663 18.1936C65.1863 18.4603 65.7796 18.8869 66.2463 19.4736C66.7263 20.0469 66.9863 20.8069 67.0263 21.7536H64.9663C64.9129 21.2469 64.7396 20.8469 64.4463 20.5536C64.1663 20.2469 63.8129 20.0336 63.3863 19.9136C62.9596 19.7803 62.5063 19.7136 62.0263 19.7136C61.6796 19.7136 61.3329 19.7469 60.9863 19.8136C60.6396 19.8669 60.3196 19.9736 60.0263 20.1336C59.7463 20.2803 59.5196 20.4803 59.3463 20.7336C59.1863 20.9869 59.1063 21.3003 59.1063 21.6736C59.1063 21.9936 59.1729 22.2803 59.3063 22.5336C59.4396 22.7736 59.6263 22.9803 59.8663 23.1536C60.1196 23.3136 60.3996 23.4536 60.7063 23.5736C61.2663 23.7869 61.8796 23.9536 62.5463 24.0736C63.2129 24.1803 63.8396 24.3336 64.4263 24.5336C64.8529 24.6669 65.2529 24.8336 65.6263 25.0336C65.9996 25.2203 66.3196 25.4536 66.5863 25.7336C66.8529 26.0003 67.0596 26.3203 67.2063 26.6936C67.3529 27.0536 67.4263 27.4736 67.4263 27.9536C67.4263 28.7403 67.2863 29.4136 67.0063 29.9736C66.7263 30.5203 66.3463 30.9603 65.8663 31.2936C65.3863 31.6269 64.8329 31.8736 64.2063 32.0336C63.5796 32.1803 62.9263 32.2536 62.2463 32.2536ZM69.7717 32.0936V17.9536H71.8317V23.0336C72.1117 22.6736 72.4317 22.3736 72.7917 22.1336C73.1651 21.8936 73.5651 21.7136 73.9917 21.5936C74.4184 21.4736 74.8451 21.4136 75.2717 21.4136C76.2851 21.4136 77.0784 21.6336 77.6517 22.0736C78.2251 22.5003 78.6317 23.0803 78.8717 23.8136C79.1117 24.5469 79.2317 25.3736 79.2317 26.2936V32.0936H77.1517V26.7736C77.1517 26.3469 77.1184 25.9269 77.0517 25.5136C76.9984 25.1003 76.8917 24.7269 76.7317 24.3936C76.5717 24.0469 76.3251 23.7736 75.9917 23.5736C75.6717 23.3603 75.2384 23.2536 74.6917 23.2536C74.1717 23.2536 73.7251 23.3669 73.3517 23.5936C72.9917 23.8203 72.6984 24.1269 72.4717 24.5136C72.2584 24.8869 72.0984 25.3003 71.9917 25.7536C71.8851 26.1936 71.8317 26.6336 71.8317 27.0736V32.0936H69.7717ZM86.3858 32.2136C85.2924 32.2136 84.3658 31.9936 83.6058 31.5536C82.8458 31.1003 82.2658 30.4669 81.8658 29.6536C81.4791 28.8403 81.2858 27.9003 81.2858 26.8336C81.2858 25.7536 81.4858 24.8136 81.8858 24.0136C82.2858 23.2003 82.8658 22.5669 83.6258 22.1136C84.3858 21.6469 85.3124 21.4136 86.4058 21.4136C87.4991 21.4136 88.4258 21.6469 89.1858 22.1136C89.9458 22.5669 90.5191 23.2003 90.9058 24.0136C91.2924 24.8269 91.4858 25.7736 91.4858 26.8536C91.4858 27.9069 91.2858 28.8403 90.8858 29.6536C90.4991 30.4669 89.9258 31.1003 89.1658 31.5536C88.4191 31.9936 87.4924 32.2136 86.3858 32.2136ZM86.3858 30.3736C87.1058 30.3736 87.6858 30.2136 88.1258 29.8936C88.5791 29.5736 88.9124 29.1469 89.1258 28.6136C89.3391 28.0669 89.4458 27.4736 89.4458 26.8336C89.4458 26.1936 89.3391 25.6069 89.1258 25.0736C88.9124 24.5403 88.5791 24.1136 88.1258 23.7936C87.6858 23.4603 87.1058 23.2936 86.3858 23.2936C85.6791 23.2936 85.0991 23.4603 84.6458 23.7936C84.1924 24.1136 83.8591 24.5403 83.6458 25.0736C83.4458 25.6069 83.3458 26.1936 83.3458 26.8336C83.3458 27.4869 83.4458 28.0803 83.6458 28.6136C83.8591 29.1469 84.1924 29.5736 84.6458 29.8936C85.0991 30.2136 85.6791 30.3736 86.3858 30.3736ZM93.5998 35.9336V21.5536H95.5598L95.6598 23.0536C96.0332 22.5069 96.5198 22.1003 97.1198 21.8336C97.7198 21.5536 98.3732 21.4136 99.0798 21.4136C100.133 21.4136 101 21.6536 101.68 22.1336C102.36 22.6003 102.867 23.2469 103.2 24.0736C103.533 24.8869 103.7 25.8003 103.7 26.8136C103.7 27.8536 103.527 28.7803 103.18 29.5936C102.847 30.4069 102.327 31.0469 101.62 31.5136C100.927 31.9803 100.047 32.2136 98.9798 32.2136C98.4732 32.2136 98.0065 32.1603 97.5798 32.0536C97.1665 31.9469 96.7998 31.7936 96.4798 31.5936C96.1732 31.3803 95.8998 31.1336 95.6598 30.8536V35.9336H93.5998ZM98.7198 30.3736C99.4398 30.3736 100.013 30.2136 100.44 29.8936C100.867 29.5603 101.173 29.1269 101.36 28.5936C101.547 28.0603 101.64 27.4803 101.64 26.8536C101.64 26.2003 101.54 25.6069 101.34 25.0736C101.153 24.5269 100.84 24.0936 100.4 23.7736C99.9732 23.4403 99.3998 23.2736 98.6798 23.2736C98.0265 23.2736 97.4732 23.4403 97.0198 23.7736C96.5665 24.0936 96.2198 24.5269 95.9798 25.0736C95.7532 25.6203 95.6398 26.2136 95.6398 26.8536C95.6398 27.5069 95.7465 28.1069 95.9598 28.6536C96.1865 29.1869 96.5265 29.6069 96.9798 29.9136C97.4465 30.2203 98.0265 30.3736 98.7198 30.3736ZM105.826 32.0936V21.5536H107.886V32.0936H105.826ZM106.846 20.1536C106.446 20.1536 106.12 20.0336 105.866 19.7936C105.626 19.5403 105.506 19.2203 105.506 18.8336C105.506 18.4469 105.633 18.1336 105.886 17.8936C106.14 17.6403 106.46 17.5136 106.846 17.5136C107.206 17.5136 107.52 17.6403 107.786 17.8936C108.066 18.1336 108.206 18.4469 108.206 18.8336C108.206 19.2203 108.073 19.5403 107.806 19.7936C107.553 20.0336 107.233 20.1536 106.846 20.1536ZM111.416 32.0936V23.3936H109.736V21.5536H111.416V20.4936C111.416 19.6936 111.529 19.0469 111.756 18.5536C111.996 18.0469 112.362 17.6736 112.856 17.4336C113.362 17.1936 114.022 17.0736 114.836 17.0736H116.216V18.8936H115.076C114.662 18.8936 114.336 18.9669 114.096 19.1136C113.869 19.2469 113.709 19.4536 113.616 19.7336C113.522 20.0003 113.476 20.3269 113.476 20.7136V21.5536H116.216V23.3936H113.476V32.0936H111.416ZM122.517 36.8536C121.704 36.8536 120.917 36.7403 120.157 36.5136C119.397 36.3003 118.704 35.9203 118.077 35.3736L118.897 33.7336C119.377 34.1203 119.904 34.4269 120.477 34.6536C121.064 34.8803 121.684 34.9936 122.337 34.9936C123.417 34.9936 124.197 34.7003 124.677 34.1136C125.157 33.5269 125.397 32.7603 125.397 31.8136V30.7936C125.157 31.1269 124.857 31.4069 124.497 31.6336C124.151 31.8469 123.764 32.0003 123.337 32.0936C122.911 32.2003 122.477 32.2536 122.037 32.2536C121.011 32.2536 120.191 32.0469 119.577 31.6336C118.977 31.2069 118.544 30.6269 118.277 29.8936C118.024 29.1603 117.897 28.3136 117.897 27.3536V21.5536H119.977V26.8536C119.977 27.2803 120.004 27.7069 120.057 28.1336C120.111 28.5603 120.224 28.9469 120.397 29.2936C120.571 29.6269 120.824 29.9003 121.157 30.1136C121.491 30.3136 121.944 30.4136 122.517 30.4136C123.237 30.4136 123.804 30.2403 124.217 29.8936C124.631 29.5336 124.924 29.0669 125.097 28.4936C125.271 27.9069 125.357 27.2736 125.357 26.5936V21.5536H127.417V31.5936C127.417 32.4203 127.317 33.1603 127.117 33.8136C126.931 34.4669 126.631 35.0203 126.217 35.4736C125.817 35.9269 125.311 36.2669 124.697 36.4936C124.097 36.7336 123.371 36.8536 122.517 36.8536Z" fill="#0C1018"/>
</g>
<defs>
<clipPath id="bgblur_0_853_13944_clip_path" transform="translate(10 10)"><rect width="147" height="50" rx="25"/>
</clipPath></defs>
</svg>

<svg xmlns="http://www.w3.org/2000/svg" width="147" height="50" fill="none" viewBox="0 0 147 50"><foreignObject width="167" height="70" x="-10" y="-10"><div xmlns="http://www.w3.org/1999/xhtml" style="backdrop-filter:blur(5px);clip-path:url(#a);height:100%;width:100%"/></foreignObject><g data-figma-bg-blur-radius="10"><rect width="147" height="50" fill="#fff" rx="25"/><path fill="#95bf47" d="M42.88 15.198a.31.31 0 0 0-.282-.262c-.117-.01-2.408-.045-2.408-.045s-1.917-1.861-2.106-2.05c-.19-.19-.56-.132-.703-.09l-.962.298a7 7 0 0 0-.461-1.132c-.683-1.302-1.681-1.99-2.889-1.993h-.004q-.126.002-.25.016a3 3 0 0 0-.11-.126c-.525-.562-1.2-.836-2.008-.813-1.56.045-3.112 1.171-4.371 3.171-.887 1.408-1.56 3.176-1.751 4.544l-3.07.951c-.904.284-.932.312-1.051 1.164-.09.644-2.454 18.93-2.454 18.93l19.817 3.426 8.59-2.135S42.901 15.36 42.88 15.198m-17.195 1.175c.536-2.506 2.635-6.265 5.042-6.334.366-.008.674.072.938.246a4.5 4.5 0 0 0-1.211.943c-.99 1.062-1.75 2.712-2.052 4.303zm7.166-2.22-3.308 1.025c.32-1.225.926-2.444 1.67-3.242.277-.297.665-.629 1.124-.818.431.9.525 2.174.514 3.035m1.037-.32c-.012-.79-.106-1.889-.474-2.838 1.183.224 1.766 1.563 2.012 2.361z"/><path fill="#5e8e3e" d="M42.598 14.936c-.117-.01-2.409-.045-2.409-.045s-1.916-1.861-2.105-2.05a.47.47 0 0 0-.266-.123v28.469l8.588-2.135S42.902 15.36 42.88 15.198a.31.31 0 0 0-.282-.262"/><path fill="#fff" d="m33.057 19.352-.998 3.732s-1.113-.507-2.432-.424c-1.934.122-1.955 1.343-1.935 1.648.105 1.67 4.496 2.034 4.743 5.943.194 3.076-1.632 5.18-4.262 5.345-3.157.2-4.895-1.663-4.895-1.663l.67-2.845s1.748 1.32 3.148 1.231c.915-.058 1.242-.802 1.209-1.328-.138-2.177-3.713-2.049-3.94-5.626-.19-3.01 1.788-6.06 6.15-6.336 1.681-.106 2.542.323 2.542.323"/><path fill="#0c1018" d="M62.246 32.254q-1.38 0-2.6-.4a4.8 4.8 0 0 1-2.06-1.3q-.84-.9-1.12-2.38h2.18q.261.84.84 1.32.58.46 1.34.64.78.18 1.56.18.741 0 1.38-.2.66-.201 1.08-.66.42-.46.42-1.2 0-.56-.22-.92a1.63 1.63 0 0 0-.62-.58 3.2 3.2 0 0 0-.92-.38q-.62-.2-1.34-.34-.7-.14-1.4-.32a7.6 7.6 0 0 1-1.28-.46 7.4 7.4 0 0 1-.98-.48 3.7 3.7 0 0 1-.8-.7 3.7 3.7 0 0 1-.56-.98q-.2-.56-.2-1.28 0-.96.3-1.64.32-.681.82-1.14a4 4 0 0 1 1.18-.72q.68-.28 1.42-.4a9 9 0 0 1 1.44-.12q1.28 0 2.36.4t1.78 1.28q.72.86.78 2.28h-2.06q-.08-.76-.52-1.2a2.2 2.2 0 0 0-1.06-.64q-.64-.2-1.36-.2-.52 0-1.04.1-.519.08-.96.32a1.85 1.85 0 0 0-.68.6q-.24.38-.24.94 0 .48.2.86.2.36.56.62.381.24.84.42.84.32 1.84.5 1 .16 1.88.46.64.2 1.2.5.561.28.96.7.4.399.62.96.22.54.22 1.26 0 1.18-.42 2.02a3.54 3.54 0 0 1-1.14 1.32q-.72.5-1.66.74-.94.22-1.96.22m7.526-.16v-14.14h2.06v5.08q.42-.54.96-.9.56-.36 1.2-.54a4.7 4.7 0 0 1 1.28-.18q1.52 0 2.38.66.86.639 1.22 1.74t.36 2.48v5.8h-2.08v-5.32q0-.64-.1-1.26a3.7 3.7 0 0 0-.32-1.12 1.83 1.83 0 0 0-.74-.82q-.48-.32-1.3-.32-.78 0-1.34.34a2.65 2.65 0 0 0-.88.92 4.6 4.6 0 0 0-.48 1.24q-.16.66-.16 1.32v5.02zm16.614.12q-1.64 0-2.78-.66a4.45 4.45 0 0 1-1.74-1.9q-.58-1.221-.58-2.82 0-1.62.6-2.82.6-1.22 1.74-1.9 1.14-.7 2.78-.7t2.78.7a4.3 4.3 0 0 1 1.72 1.9q.58 1.22.58 2.84 0 1.58-.6 2.8a4.3 4.3 0 0 1-1.72 1.9q-1.12.66-2.78.66m0-1.84q1.08 0 1.74-.48.68-.48 1-1.28.32-.82.32-1.78t-.32-1.76a2.8 2.8 0 0 0-1-1.28q-.66-.5-1.74-.5-1.06 0-1.74.5-.68.48-1 1.28-.3.8-.3 1.76 0 .98.3 1.78.32.8 1 1.28t1.74.48m7.214 5.56v-14.38h1.96l.1 1.5q.56-.82 1.46-1.22.9-.42 1.96-.42 1.58 0 2.6.72 1.02.7 1.52 1.94.5 1.22.5 2.74 0 1.56-.52 2.78a4.1 4.1 0 0 1-1.56 1.92q-1.04.7-2.64.7-.76 0-1.4-.16a3.9 3.9 0 0 1-1.1-.46 4.3 4.3 0 0 1-.82-.74v5.08zm5.12-5.56q1.08 0 1.72-.48.64-.5.92-1.3.28-.801.28-1.74 0-.98-.3-1.78-.28-.82-.94-1.3-.64-.5-1.72-.5-.98 0-1.66.5-.68.48-1.04 1.3a4.6 4.6 0 0 0-.34 1.78q0 .98.32 1.8.34.8 1.02 1.26.699.46 1.74.46m7.106 1.72v-10.54h2.06v10.54zm1.02-11.94q-.6 0-.98-.36-.36-.381-.36-.96 0-.58.38-.94.381-.38.96-.38.54 0 .94.38.42.36.42.94 0 .579-.4.96-.38.36-.96.36m4.57 11.94v-8.7h-1.68v-1.84h1.68v-1.06q0-1.2.34-1.94a2.3 2.3 0 0 1 1.1-1.12q.759-.36 1.98-.36h1.38v1.82h-1.14q-.62 0-.98.22-.34.2-.48.62-.14.4-.14.98v.84h2.74v1.84h-2.74v8.7zm11.101 4.76q-1.22 0-2.36-.34a5.3 5.3 0 0 1-2.08-1.14l.82-1.64q.72.58 1.58.92.88.34 1.86.34 1.62 0 2.34-.88t.72-2.3v-1.02q-.36.5-.9.84a3.7 3.7 0 0 1-1.16.46q-.64.16-1.3.16-1.539 0-2.46-.62-.9-.64-1.3-1.74-.38-1.1-.38-2.54v-5.8h2.08v5.3q0 .64.08 1.28t.34 1.16q.26.5.76.82.5.3 1.36.3 1.08 0 1.7-.52.62-.54.88-1.4.26-.88.26-1.9v-5.04h2.06v10.04q0 1.239-.3 2.22a4.1 4.1 0 0 1-.9 1.66 3.7 3.7 0 0 1-1.52 1.02q-.9.36-2.18.36"/></g><defs><clipPath id="a" transform="translate(10 10)"><rect width="147" height="50" rx="25"/></clipPath></defs></svg>
